svgs/sharp-solid/location-pin-lock.svg

<svg xmlns="http://www.w3.org/2000/svg" viewBox="0 0 512 512"><!--! Font Awesome Pro 6.6.0 by @fontawesome - https://fontawesome.com License - https://fontawesome.com/license (Commercial License) Copyright 2024 Fonticons, Inc. --><path d="M192 512s28.8-31.1 64-75.8L256 288l32 0 0-16c0-55.6 40.5-101.7 93.6-110.5C367 70 287.7 0 192 0C86 0 0 86 0 192C0 304 192 512 192 512zm0-384a64 64 0 1 1 0 128 64 64 0 1 1 0-128zM400 240c17.7 0 32 14.3 32 32l0 48-64 0 0-48c0-17.7 14.3-32 32-32zm-80 32l0 48-32 0 0 192 224 0 0-192-32 0 0-48c0-44.2-35.8-80-80-80s-80 35.8-80 80z"/></svg>

<svg xmlns="http://www.w3.org/2000/svg" viewBox="0 0 512 512"><!--! Font Awesome Pro 6.4.2 by @fontawesome - https://fontawesome.com License - https://fontawesome.com/license (Commercial License) Copyright 2023 Fonticons, Inc. --><path d="M192 512s28.8-31.1 64-75.8L256 288h32V272c0-55.6 40.5-101.7 93.6-110.5C367 70 287.7 0 192 0C86 0 0 86 0 192C0 304 192 512 192 512zm0-384a64 64 0 1 1 0 128 64 64 0 1 1 0-128zM400 240c17.7 0 32 14.3 32 32v48H368V272c0-17.7 14.3-32 32-32zm-80 32v48H288V512H512V320H480V272c0-44.2-35.8-80-80-80s-80 35.8-80 80z"/></svg>
